X:2800
T:Devil in the Kitchen
C:anon.
O:Scotland
Z:Transcribed by Frank Nordberg - http://www.musicaviva.com
F:http://abc.musicaviva.com/tunes/scotland/devil-in-the-kitchen.abc
%Posted at abcusers Dec 23rd 2000 by Jack Campin as a part of his "Two at once" quodlibet
M:C|
L:1/8
K:Amix
e>AA2 e>A (3fed|e>AA2 g2f<a|  e>A   A2  e>A (3fed|\
[1 B>GB2 g2f<a:|[2 B>GB2 g2f<g||a>AA2 e>A   A2 |a>AA2 g2f>g|\
[1 a>A   A2  e>A (3fed|B>G B2  g2f>g:|[2 (3agf g>e f/af/ e>c|B>c d>e g2f<a|]
W:
W:
W:  From Musica Viva - http://www.musicaviva.com
W:  the Internet center for free sheet music downloads.
